X: 2412
M: C
L: 1/8
K: C
|:\
E2 (3(GEG) c>GE>G | F2 (3(AFA) c>AF>A |\
E2 (3(GEG) c>GE>G | F2 (3(AFA) c>AF>A |\
|:\
(3(efe) (3(ded) (3(cdc) (3(BcB) |\
[1 A2a2 a2 :|[2 A2z2 "_D.C."[B4F4] |]


